client/src/assets/avatars/cactus.svg

<?xml version="1.0" encoding="UTF-8" standalone="no"?>
<!-- Created with Inkscape (http://www.inkscape.org/) -->

<svg
   width="256"
   height="256"
   viewBox="0 0 67.733332 67.733333"
   version="1.1"
   id="svg1"
   xml:space="preserve"
   inkscape:version="1.4.3 (0d15f75042, 2025-12-25)"
   sodipodi:docname="cactus.svg"
   xmlns:inkscape="http://www.inkscape.org/namespaces/inkscape"
   xmlns:sodipodi="http://sodipodi.sourceforge.net/DTD/sodipodi-0.dtd"
   xmlns="http://www.w3.org/2000/svg"
   xmlns:svg="http://www.w3.org/2000/svg"><sodipodi:namedview
     id="namedview1"
     pagecolor="#ffffff"
     bordercolor="#000000"
     borderopacity="0.25"
     inkscape:showpageshadow="2"
     inkscape:pageopacity="0.0"
     inkscape:pagecheckerboard="0"
     inkscape:deskcolor="#d1d1d1"
     inkscape:document-units="mm"
     showguides="true"
     inkscape:zoom="5.3996103"
     inkscape:cx="110.84133"
     inkscape:cy="68.245666"
     inkscape:window-width="1651"
     inkscape:window-height="1541"
     inkscape:window-x="0"
     inkscape:window-y="0"
     inkscape:window-maximized="1"
     inkscape:current-layer="layer1"
     showgrid="false"><sodipodi:guide
       position="158.32902,138.53372"
       orientation="1,0"
       id="guide25"
       inkscape:locked="false" /></sodipodi:namedview><defs
     id="defs1" /><g
     inkscape:label="Layer 1"
     inkscape:groupmode="layer"
     id="layer1"><path
       id="rect3"
       style="fill:currentColor;stroke-width:2.00001;stroke-linecap:round;stroke-linejoin:round;stroke-miterlimit:10"
       d="m 33.866742,4.1083302 c 4.041353,0 7.294861,3.2535082 7.294861,7.2948618 v 38.563071 c 0,4.041353 -3.253508,7.294861 -7.294861,7.294861 -4.041354,0 -7.294862,-3.253508 -7.294862,-7.294861 V 11.403192 c 0,-4.0413536 3.253508,-7.2948618 7.294862,-7.2948618 z" /><path
       id="rect4"
       style="fill:currentColor;stroke-width:2.00001;stroke-linecap:round;stroke-linejoin:round;stroke-miterlimit:10"
       transform="rotate(90)"
       d="m 34.091959,-52.069809 c 1.887605,0 3.407229,1.519625 3.407229,3.40723 v 15.001946 c 0,1.887606 -1.519624,3.40723 -3.407229,3.40723 -1.887606,0 -3.40723,-1.519624 -3.40723,-3.40723 v -15.001946 c 0,-1.887605 1.519624,-3.40723 3.40723,-3.40723 z" /><path
       id="rect5"
       style="fill:currentColor;stroke-width:2.00001;stroke-linecap:round;stroke-linejoin:round;stroke-miterlimit:10"
       d="m 48.149673,23.870272 c 2.171756,0 3.920136,1.74838 3.920136,3.920135 v 5.788647 c 0,2.171755 -1.74838,3.920135 -3.920136,3.920135 -2.171755,0 -3.920135,-1.74838 -3.920135,-3.920135 v -5.788647 c 0,-2.171755 1.74838,-3.920135 3.920135,-3.920135 z" /><path
       id="rect6"
       style="fill:currentColor;stroke-width:2.00001;stroke-linecap:round;stroke-linejoin:round;stroke-miterlimit:10"
       transform="matrix(0,1,1,0,0,0)"
       d="m 23.581607,15.663678 c 1.887606,0 3.40723,1.519625 3.40723,3.40723 v 15.001947 c 0,1.887605 -1.519624,3.407229 -3.40723,3.407229 -1.887605,0 -3.40723,-1.519624 -3.40723,-3.407229 V 19.070908 c 0,-1.887605 1.519625,-3.40723 3.40723,-3.40723 z" /><path
       id="rect7"
       style="fill:currentColor;stroke-width:2.00001;stroke-linecap:round;stroke-linejoin:round;stroke-miterlimit:10"
       transform="scale(-1,1)"
       d="m -19.583811,10.693388 c 2.171755,0 3.920136,1.74838 3.920136,3.920135 v 8.455174 c 0,2.171755 -1.748381,3.920135 -3.920136,3.920135 -2.171755,0 -3.920135,-1.74838 -3.920135,-3.920135 v -8.455174 c 0,-2.171755 1.74838,-3.920135 3.920135,-3.920135 z" /><path
       style="fill:none;fill-opacity:1;stroke:#000000;stroke-width:2.00001;stroke-linecap:round;stroke-linejoin:round;stroke-miterlimit:10;stroke-opacity:0.0714448"
       d="M 37.162153,12.868678 V 46.264739"
       id="path16" /><path
       style="fill:none;fill-opacity:1;stroke:#000000;stroke-width:2.00001;stroke-linecap:round;stroke-linejoin:round;stroke-miterlimit:10;stroke-opacity:0.07144475"
       d="M 33.275407,10.80993 V 46.351403"
       id="path17" /><path
       id="rect23"
       style="fill:none;fill-opacity:1;stroke:#1a1a1a;stroke-width:2.00001;stroke-linecap:round;stroke-linejoin:round;stroke-miterlimit:10"
       d="M 33.866667 4.1082764 C 29.825313 4.1082764 26.572021 7.3620851 26.572021 11.403438 L 26.572021 20.174479 L 23.503992 20.174479 L 23.503992 14.613578 C 23.503992 12.441823 21.755573 10.693404 19.583818 10.693404 C 17.412062 10.693404 15.663643 12.441823 15.663643 14.613578 L 15.663643 23.068876 C 15.663643 23.15812 15.666616 23.246254 15.672428 23.333976 C 15.66662 23.415667 15.663643 23.498287 15.663643 23.581506 C 15.663643 25.469112 17.183065 26.98905 19.070671 26.98905 L 26.572021 26.98905 L 26.572021 49.966459 C 26.572021 54.007812 29.825313 57.261104 33.866667 57.261104 C 37.90802 57.261104 41.161829 54.007812 41.161829 49.966459 L 41.161829 37.499003 L 48.662663 37.499003 C 50.550268 37.499003 52.06969 35.979581 52.06969 34.091976 C 52.06969 34.00875 52.066714 33.926142 52.060905 33.844446 C 52.066717 33.756731 52.06969 33.668065 52.06969 33.578829 L 52.06969 27.790552 C 52.06969 25.618797 50.321271 23.870378 48.149516 23.870378 C 45.977761 23.870378 44.229342 25.618797 44.229342 27.790552 L 44.229342 30.684949 L 41.161829 30.684949 L 41.161829 11.403438 C 41.161829 7.3620851 37.90802 4.1082764 33.866667 4.1082764 z " /><g
       id="g29"><g
         id="g28"><path
           id="rect2"
           style="fill:#ff9249;fill-opacity:1;stroke:none;stroke-width:2.00001;stroke-linecap:round;stroke-linejoin:round;stroke-miterlimit:10"
           d="M 22.70799,48.603319 H 44.115342 L 40.161117,64.624744 H 26.662215 Z"
           sodipodi:nodetypes="ccccc" /><path
           id="path14"
           style="fill:#f17749;fill-opacity:1;stroke:none;stroke-width:2.00001;stroke-linecap:round;stroke-linejoin:round;stroke-miterlimit:10"
           d="m 39.257546,48.603039 -3.954003,16.021895 h 4.857378 l 3.954664,-16.021895 z" /><path
           id="path15"
           style="fill:none;fill-opacity:1;stroke:#1a1a1a;stroke-width:2.00001;stroke-linecap:round;stroke-linejoin:round;stroke-miterlimit:10"
           d="M 22.70799,48.603319 H 44.115342 L 40.161117,64.624744 H 26.662215 Z"
           sodipodi:nodetypes="ccccc" /></g><g
         id="g27"><rect
           style="fill:#ff9249;fill-opacity:1;stroke:none;stroke-width:2.00001;stroke-linecap:round;stroke-linejoin:round;stroke-miterlimit:10"
           id="rect1"
           width="26.656925"
           height="6.3113279"
           x="20.0832"
           y="42.291988" /><rect
           style="fill:#f17749;fill-opacity:1;stroke:none;stroke-width:2.00001;stroke-linecap:round;stroke-linejoin:round;stroke-miterlimit:10"
           id="rect15"
           width="4.6252117"
           height="6.3113279"
           x="42.11491"
           y="42.291988" /><rect
           style="fill:none;fill-opacity:1;stroke:#1a1a1a;stroke-width:2.00001;stroke-linecap:round;stroke-linejoin:round;stroke-miterlimit:10"
           id="rect16"
           width="26.656925"
           height="6.3113279"
           x="20.0832"
           y="42.291988" /></g></g><path
       style="fill:#ffffff;fill-opacity:0.39;stroke:none;stroke-width:4;stroke-linecap:round;stroke-linejoin:round;stroke-miterlimit:10;stroke-dasharray:none;stroke-opacity:0.0714448"
       d="m 28.706519,11.45024 c 0,-3.309077 3.211336,-4.9872229 4.333821,-5.2865235 1.337025,-0.3565053 0.950183,-0.011368 0.104102,0.492519 -1.104106,0.6575547 -2.617097,2.4387517 -2.617097,4.7731145 0,1.834079 -1.820826,1.912916 -1.820826,0.02089 z"
       id="path29"
       sodipodi:nodetypes="sssss" /><path
       style="fill:#ffffff;fill-opacity:0.39;stroke:none;stroke-width:4;stroke-linecap:round;stroke-linejoin:round;stroke-miterlimit:10;stroke-dasharray:none;stroke-opacity:0.0714448"
       d="m 17.149727,14.993436 c 0,-1.770258 1.234714,-2.648853 2.318465,-2.828132 0.750539,-0.124157 0.577707,0.0671 0.05569,0.263482 -1.034894,0.389321 -1.400069,1.30466 -1.400069,2.553474 0,0.981178 -0.974087,1.023353 -0.974087,0.01118 z"
       id="path32"
       sodipodi:nodetypes="ssssss" /><path
       style="fill:#ffffff;fill-opacity:0.39;stroke:none;stroke-width:4;stroke-linecap:round;stroke-linejoin:round;stroke-miterlimit:10;stroke-dasharray:none;stroke-opacity:0.0714448"
       d="m 45.961991,28.566561 c 0,-1.770258 1.234714,-2.648853 2.318465,-2.828132 0.750539,-0.124157 0.577707,0.0671 0.05569,0.263482 -1.034894,0.389321 -1.400069,1.30466 -1.400069,2.553474 0,0.981178 -0.974087,1.023353 -0.974087,0.01118 z"
       id="path33"
       sodipodi:nodetypes="ssssss" /></g></svg>

<?xml version="1.0" encoding="UTF-8"?>
<!-- Created with Inkscape (http://www.inkscape.org/) -->
<svg id="svg1" width="256" height="256" version="1.1" viewBox="0 0 67.733 67.733" xml:space="preserve" xmlns="http://www.w3.org/2000/svg"><g id="layer1"><path id="rect3" d="m33.867 4.1083c4.0414 0 7.2949 3.2535 7.2949 7.2949v38.563c0 4.0414-3.2535 7.2949-7.2949 7.2949-4.0414 0-7.2949-3.2535-7.2949-7.2949v-38.563c0-4.0414 3.2535-7.2949 7.2949-7.2949z" fill="currentColor" stroke-linecap="round" stroke-linejoin="round" stroke-miterlimit="10" stroke-width="2"/><path id="rect4" transform="rotate(90)" d="m34.092-52.07c1.8876 0 3.4072 1.5196 3.4072 3.4072v15.002c0 1.8876-1.5196 3.4072-3.4072 3.4072-1.8876 0-3.4072-1.5196-3.4072-3.4072v-15.002c0-1.8876 1.5196-3.4072 3.4072-3.4072z" fill="currentColor" stroke-linecap="round" stroke-linejoin="round" stroke-miterlimit="10" stroke-width="2"/><path id="rect5" d="m48.15 23.87c2.1718 0 3.9201 1.7484 3.9201 3.9201v5.7886c0 2.1718-1.7484 3.9201-3.9201 3.9201-2.1718 0-3.9201-1.7484-3.9201-3.9201v-5.7886c0-2.1718 1.7484-3.9201 3.9201-3.9201z" fill="currentColor" stroke-linecap="round" stroke-linejoin="round" stroke-miterlimit="10" stroke-width="2"/><path id="rect6" transform="matrix(0,1,1,0,0,0)" d="m23.582 15.664c1.8876 0 3.4072 1.5196 3.4072 3.4072v15.002c0 1.8876-1.5196 3.4072-3.4072 3.4072-1.8876 0-3.4072-1.5196-3.4072-3.4072v-15.002c0-1.8876 1.5196-3.4072 3.4072-3.4072z" fill="currentColor" stroke-linecap="round" stroke-linejoin="round" stroke-miterlimit="10" stroke-width="2"/><path id="rect7" transform="scale(-1,1)" d="m-19.584 10.693c2.1718 0 3.9201 1.7484 3.9201 3.9201v8.4552c0 2.1718-1.7484 3.9201-3.9201 3.9201s-3.9201-1.7484-3.9201-3.9201v-8.4552c0-2.1718 1.7484-3.9201 3.9201-3.9201z" fill="currentColor" stroke-linecap="round" stroke-linejoin="round" stroke-miterlimit="10" stroke-width="2"/><path id="path16" d="m37.162 12.869v33.396" fill="none" stroke="#000" stroke-linecap="round" stroke-linejoin="round" stroke-miterlimit="10" stroke-opacity=".071445" stroke-width="2"/><path id="path17" d="m33.275 10.81v35.541" fill="none" stroke="#000" stroke-linecap="round" stroke-linejoin="round" stroke-miterlimit="10" stroke-opacity=".071445" stroke-width="2"/><path id="rect23" d="m33.867 4.1083c-4.0414 0-7.2946 3.2538-7.2946 7.2952v8.771h-3.068v-5.5609c0-2.1718-1.7484-3.9202-3.9202-3.9202-2.1718 0-3.9202 1.7484-3.9202 3.9202v8.4553c0 0.089244 0.002973 0.17738 0.008785 0.2651-0.005808 0.081691-0.008785 0.16431-0.008785 0.24753 0 1.8876 1.5194 3.4075 3.407 3.4075h7.5014v22.977c0 4.0414 3.2533 7.2946 7.2946 7.2946 4.0414 0 7.2952-3.2533 7.2952-7.2946v-12.467h7.5008c1.8876 0 3.407-1.5194 3.407-3.407 0-0.083226-0.002976-0.16583-0.008785-0.24753 0.005812-0.087715 0.008785-0.17638 0.008785-0.26562v-5.7883c0-2.1718-1.7484-3.9202-3.9202-3.9202s-3.9202 1.7484-3.9202 3.9202v2.8944h-3.0675v-19.282c0-4.0414-3.2538-7.2952-7.2952-7.2952z" fill="none" stroke="#1a1a1a" stroke-linecap="round" stroke-linejoin="round" stroke-miterlimit="10" stroke-width="2"/><g id="g29"><g id="g28"><path id="rect2" d="m22.708 48.603h21.407l-3.9542 16.021h-13.499z" fill="#ff9249"/><path id="path14" d="m39.258 48.603-3.954 16.022h4.8574l3.9547-16.022z" fill="#f17749"/><path id="path15" d="m22.708 48.603h21.407l-3.9542 16.021h-13.499z" fill="none" stroke="#1a1a1a" stroke-linecap="round" stroke-linejoin="round" stroke-miterlimit="10" stroke-width="2"/></g><g id="g27"><rect id="rect1" x="20.083" y="42.292" width="26.657" height="6.3113" fill="#ff9249"/><rect id="rect15" x="42.115" y="42.292" width="4.6252" height="6.3113" fill="#f17749"/><rect id="rect16" x="20.083" y="42.292" width="26.657" height="6.3113" fill="none" stroke="#1a1a1a" stroke-linecap="round" stroke-linejoin="round" stroke-miterlimit="10" stroke-width="2"/></g></g><path id="path29" d="m28.707 11.45c0-3.3091 3.2113-4.9872 4.3338-5.2865 1.337-0.35651 0.95018-0.011368 0.1041 0.49252-1.1041 0.65755-2.6171 2.4388-2.6171 4.7731 0 1.8341-1.8208 1.9129-1.8208 0.02089z" fill="#fff" fill-opacity=".39"/><path id="path32" d="m17.15 14.993c0-1.7703 1.2347-2.6489 2.3185-2.8281 0.75054-0.12416 0.57771 0.0671 0.05569 0.26348-1.0349 0.38932-1.4001 1.3047-1.4001 2.5535 0 0.98118-0.97409 1.0234-0.97409 0.01118z" fill="#fff" fill-opacity=".39"/><path id="path33" d="m45.962 28.567c0-1.7703 1.2347-2.6489 2.3185-2.8281 0.75054-0.12416 0.57771 0.0671 0.05569 0.26348-1.0349 0.38932-1.4001 1.3047-1.4001 2.5535 0 0.98118-0.97409 1.0234-0.97409 0.01118z" fill="#fff" fill-opacity=".39"/></g></svg>
